X: 33
T: LAY DEE AT DEE
S: Lawrence Johnson, Brae J. H. School
R: reel
B: Haand me doon da fiddle, 1979
Z: 2012 John Chambers <jc:trillian.mit.edu>
N: There are small-dot A and D notes throughout, to indicate playing the open A and D "drone" strings.
N: The last bar has 3 beats; added a rest to fill it out.
M: C
L: 1/8
K: D
|:\
defe d2d2 | ABAG F2A2 | d2ef Tgfe2 | efed cBA2 |
defe d2d2 | ABAG F2A2 | d2ef gfec | e2d2 d3e :|
|:\
f2df afdf | Tf2df g3f | e2ce eece | edcB A3e |
f2df afdf | afdf g3f | efgf edcB | A2d2 d2z2 :|
%%begintext align
Anidder een fae Yell.  Ida haaf days whin da men cam ashore dey
sleepit in a peerie stane hoose caaed a lodge.  Dere wis only
wan bed at day aa sleepit in.  If some een took ower muckle
room, da een next ta him wid say, "Lay dee at dee, boy".  Dis
is anidder een played wi da high bass.
%%endtext

%%sep 2 1 500
%%sep 1 1 500

